symbols-de/shields/motorway_9x3.svg

<?xml version="1.0" encoding="UTF-8" standalone="no"?>
<svg
   xmlns:dc="http://purl.org/dc/elements/1.1/"
   xmlns:cc="http://creativecommons.org/ns#"
   xmlns:rdf="http://www.w3.org/1999/02/22-rdf-syntax-ns#"
   xmlns:svg="http://www.w3.org/2000/svg"
   xmlns="http://www.w3.org/2000/svg"
   xmlns:sodipodi="http://sodipodi.sourceforge.net/DTD/sodipodi-0.dtd"
   xmlns:inkscape="http://www.inkscape.org/namespaces/inkscape"
   width="100%"
   height="100%"
   viewBox="0 0 63.0 33.0"
   id="svg2"
   version="1.1"
   inkscape:version="0.91 r13725"
   sodipodi:docname="autobahn_9x3.svg">
  <metadata
     id="metadata9">
    <rdf:RDF>
      <cc:Work
         rdf:about="">
        <dc:format>image/svg+xml</dc:format>
        <dc:type
           rdf:resource="http://purl.org/dc/dcmitype/StillImage" />
        <dc:title></dc:title>
      </cc:Work>
    </rdf:RDF>
  </metadata>
  <defs
     id="defs7" />
  <sodipodi:namedview
     pagecolor="#ffffff"
     bordercolor="#666666"
     borderopacity="1"
     objecttolerance="10"
     gridtolerance="10"
     guidetolerance="10"
     inkscape:pageopacity="0"
     inkscape:pageshadow="2"
     inkscape:window-width="1276"
     inkscape:window-height="815"
     id="namedview5"
     showgrid="false"
     inkscape:zoom="5.6031746"
     inkscape:cx="31.5"
     inkscape:cy="16.5"
     inkscape:window-x="410"
     inkscape:window-y="37"
     inkscape:window-maximized="0"
     inkscape:current-layer="svg2" />
  <path
     style="fill:#365eaf;fill-opacity:1;stroke:#0528a2;stroke-width:1;stroke-miterlimit:4;stroke-dasharray:none;stroke-opacity:1"
     d="m 31.5,0.499998 c -0.444442,0 -0.666016,0.0033 -0.666016,0.01172 L 1.501352,2.281249 C 0.834685,2.366099 0.5,2.494362 0.5,2.664062 l 0,27.671875 c 0,0.1697 0.334685,0.297962 1.001352,0.382812 l 29.332632,1.769531 c 0,0.0085 0.221578,0.01172 0.666016,0.01172 0.444445,0 0.666016,-0.0032 0.666016,-0.01172 l 29.332633,-1.769531 c 0.66667,-0.08485 0.8552,-0.224567 1.00135,-0.382812 0,-14.860404 0,-14.542796 0,-27.671875 0,-0.1697 -0.33468,-0.297965 -1.00135,-0.382813 L 32.166016,0.511717 c 0,-0.0085 -0.221579,-0.01172 -0.666016,-0.01172 z"
     id="path6"
     inkscape:connector-curvature="0"
     sodipodi:nodetypes="sccccccsccccccs" />
</svg>

<?xml version="1.0" encoding="UTF-8"?>
<svg xmlns="http://www.w3.org/2000/svg" xmlns:xlink="http://www.w3.org/1999/xlink" width="65pt" height="42pt" viewBox="0 0 65 42" version="1.1">
<g id="surface1">
<path style="fill-rule:nonzero;fill:rgb(21.176471%,36.862745%,68.627451%);fill-opacity:1;stroke-width:1;stroke-linecap:butt;stroke-linejoin:miter;stroke:rgb(1.960784%,15.686275%,63.529412%);stroke-opacity:1;stroke-miterlimit:4;" d="M 31.5 0.500279 C 31.057031 0.500279 30.833654 0.503348 30.833654 0.512556 L 1.503065 2.280413 C 0.832933 2.36635 0.49976 2.495257 0.49976 2.664062 L 0.49976 30.335938 C 0.49976 30.504743 0.832933 30.63365 1.503065 30.719587 L 30.833654 32.487444 C 30.833654 32.496652 31.057031 32.499721 31.5 32.499721 C 31.942969 32.499721 32.166346 32.496652 32.166346 32.487444 L 61.496935 30.719587 C 62.167067 30.63365 62.352584 30.495536 62.50024 30.335938 C 62.50024 15.474888 62.50024 15.794085 62.50024 2.664062 C 62.50024 2.495257 62.167067 2.36635 61.496935 2.280413 L 32.166346 0.512556 C 32.166346 0.503348 31.942969 0.500279 31.5 0.500279 Z M 31.5 0.500279 " transform="matrix(1.031746,0,0,1.272727,0,0)"/>
</g>
</svg>
